static/assets/img/icons/theme/shopping/gift.svg

<svg height="24" viewBox="0 0 24 24" width="24" xmlns="http://www.w3.org/2000/svg"><g fill="none" fill-rule="evenodd"><path d="m0 0h24v24h-24z" opacity="0"/><g fill="#000"><path d="m4 6h16c.5522847 0 1 .44771525 1 1v1c0 .55228475-.4477153 1-1 1h-16c-.55228475 0-1-.44771525-1-1v-1c0-.55228475.44771525-1 1-1zm1 5h5c.5522847 0 1 .4477153 1 1v7c0 .5522847-.4477153 1-1 1h-5c-.55228475 0-1-.4477153-1-1v-7c0-.5522847.44771525-1 1-1zm9 0h5c.5522847 0 1 .4477153 1 1v7c0 .5522847-.4477153 1-1 1h-5c-.5522847 0-1-.4477153-1-1v-7c0-.5522847.4477153-1 1-1z"/><path d="m14.4452998 2.16794971c.4595287-.30635246 1.080398-.18217859 1.3867505.27735009.3063525.45952869.1821786 1.08039804-.2773501 1.38675049l-3.5547002 2.36980014-3.5547002-2.36980014c-.45952868-.30635245-.58370255-.9272218-.27735009-1.38675049.30635245-.45952868.9272218-.58370255 1.38675049-.27735009l2.4452998 1.63019986z" fill-rule="nonzero" opacity=".3"/></g></g></svg>

<svg width="24px" height="24px" viewBox="0 0 24 24" version="1.1" xmlns="http://www.w3.org/2000/svg" xmlns:xlink="http://www.w3.org/1999/xlink">
    <title>Icon For Gift</title>
    <g stroke="none" stroke-width="1" fill="none" fill-rule="evenodd">
        <rect opacity="0" x="0" y="0" width="24" height="24"></rect>
        <path d="M4,6 L20,6 C20.5522847,6 21,6.44771525 21,7 L21,8 C21,8.55228475 20.5522847,9 20,9 L4,9 C3.44771525,9 3,8.55228475 3,8 L3,7 C3,6.44771525 3.44771525,6 4,6 Z M5,11 L10,11 C10.5522847,11 11,11.4477153 11,12 L11,19 C11,19.5522847 10.5522847,20 10,20 L5,20 C4.44771525,20 4,19.5522847 4,19 L4,12 C4,11.4477153 4.44771525,11 5,11 Z M14,11 L19,11 C19.5522847,11 20,11.4477153 20,12 L20,19 C20,19.5522847 19.5522847,20 19,20 L14,20 C13.4477153,20 13,19.5522847 13,19 L13,12 C13,11.4477153 13.4477153,11 14,11 Z" fill="#000000"></path>
        <path d="M14.4452998,2.16794971 C14.9048285,1.86159725 15.5256978,1.98577112 15.8320503,2.4452998 C16.1384028,2.90482849 16.0142289,3.52569784 15.5547002,3.83205029 L12,6.20185043 L8.4452998,3.83205029 C7.98577112,3.52569784 7.86159725,2.90482849 8.16794971,2.4452998 C8.47430216,1.98577112 9.09517151,1.86159725 9.5547002,2.16794971 L12,3.79814957 L14.4452998,2.16794971 Z" fill="#000000" fill-rule="nonzero" opacity="0.3"></path>
    </g>
</svg>
